static/img/kroki/964911b448424f14646a595bb8e1ca6b.svg

<?xml version="1.0" encoding="us-ascii" standalone="no"?><svg xmlns="http://www.w3.org/2000/svg" xmlns:xlink="http://www.w3.org/1999/xlink" contentStyleType="text/css" height="374px" preserveAspectRatio="none" style="width:320px;height:374px;" version="1.1" viewBox="0 0 320 374" width="320px" zoomAndPan="magnify"><defs/><g><!--class github_resource--><g id="elem_github_resource"><rect codeLine="23" fill="#3D176E" height="39.7891" id="github_resource" rx="2.5" ry="2.5" style="stroke:#000D19;stroke-width:0.5;" width="176" x="7" y="167.79"/><ellipse cx="22" cy="187.6845" fill="#ADD1B2" rx="11" ry="11" style="stroke:#181818;stroke-width:1.0;"/><path d="M24.9688,193.3252 Q24.3906,193.622 23.75,193.7627 Q23.1094,193.9189 22.4063,193.9189 Q19.9063,193.9189 18.5781,192.2783 Q17.2656,190.622 17.2656,187.497 Q17.2656,184.372 18.5781,182.7158 Q19.9063,181.0595 22.4063,181.0595 Q23.1094,181.0595 23.75,181.2158 Q24.4063,181.372 24.9688,181.6689 L24.9688,184.3877 Q24.3438,183.8095 23.75,183.5439 Q23.1563,183.2627 22.5313,183.2627 Q21.1875,183.2627 20.5,184.3408 Q19.8125,185.4033 19.8125,187.497 Q19.8125,189.5908 20.5,190.6689 Q21.1875,191.7314 22.5313,191.7314 Q23.1563,191.7314 23.75,191.4658 Q24.3438,191.1845 24.9688,190.6064 L24.9688,193.3252 Z " fill="#000000"/><text fill="#D9B8FF" font-family="Helvetica" font-size="17" lengthAdjust="spacing" textLength="134" x="41" y="193.5698">github_resource</text></g><!--class github_user--><g id="elem_github_user"><rect codeLine="26" fill="#3D176E" height="39.7891" id="github_user" rx="2.5" ry="2.5" style="stroke:#000D19;stroke-width:0.5;" width="141" x="59.5" y="328.58"/><ellipse cx="74.5" cy="348.4745" fill="#ADD1B2" rx="11" ry="11" style="stroke:#181818;stroke-width:1.0;"/><path d="M77.4688,354.1152 Q76.8906,354.412 76.25,354.5527 Q75.6094,354.7089 74.9063,354.7089 Q72.4063,354.7089 71.0781,353.0683 Q69.7656,351.412 69.7656,348.287 Q69.7656,345.162 71.0781,343.5058 Q72.4063,341.8495 74.9063,341.8495 Q75.6094,341.8495 76.25,342.0058 Q76.9063,342.162 77.4688,342.4589 L77.4688,345.1777 Q76.8438,344.5995 76.25,344.3339 Q75.6563,344.0527 75.0313,344.0527 Q73.6875,344.0527 73,345.1308 Q72.3125,346.1933 72.3125,348.287 Q72.3125,350.3808 73,351.4589 Q73.6875,352.5214 75.0313,352.5214 Q75.6563,352.5214 76.25,352.2558 Q76.8438,351.9745 77.4688,351.3964 L77.4688,354.1152 Z " fill="#000000"/><text fill="#D9B8FF" font-family="Helvetica" font-size="17" lengthAdjust="spacing" textLength="99" x="93.5" y="354.3598">github_user</text></g><!--class resource--><g id="elem_resource"><rect codeLine="29" fill="#3D176E" height="39.7891" id="resource" rx="2.5" ry="2.5" style="stroke:#000D19;stroke-width:0.5;" width="113" x="200.5" y="7"/><ellipse cx="215.5" cy="26.8945" fill="#ADD1B2" rx="11" ry="11" style="stroke:#181818;stroke-width:1.0;"/><path d="M218.4688,32.5352 Q217.8906,32.832 217.25,32.9727 Q216.6094,33.1289 215.9063,33.1289 Q213.4063,33.1289 212.0781,31.4883 Q210.7656,29.832 210.7656,26.707 Q210.7656,23.582 212.0781,21.9258 Q213.4063,20.2695 215.9063,20.2695 Q216.6094,20.2695 217.25,20.4258 Q217.9063,20.582 218.4688,20.8789 L218.4688,23.5977 Q217.8438,23.0195 217.25,22.7539 Q216.6563,22.4727 216.0313,22.4727 Q214.6875,22.4727 214,23.5508 Q213.3125,24.6133 213.3125,26.707 Q213.3125,28.8008 214,29.8789 Q214.6875,30.9414 216.0313,30.9414 Q216.6563,30.9414 217.25,30.6758 Q217.8438,30.3945 218.4688,29.8164 L218.4688,32.5352 Z " fill="#000000"/><text fill="#D9B8FF" font-family="Helvetica" font-size="17" lengthAdjust="spacing" textLength="71" x="234.5" y="32.7798">resource</text></g><!--class user--><g id="elem_user"><rect codeLine="32" fill="#3D176E" height="39.7891" id="user" rx="2.5" ry="2.5" style="stroke:#000D19;stroke-width:0.5;" width="78" x="218" y="167.79"/><ellipse cx="233" cy="187.6845" fill="#ADD1B2" rx="11" ry="11" style="stroke:#181818;stroke-width:1.0;"/><path d="M235.9688,193.3252 Q235.3906,193.622 234.75,193.7627 Q234.1094,193.9189 233.4063,193.9189 Q230.9063,193.9189 229.5781,192.2783 Q228.2656,190.622 228.2656,187.497 Q228.2656,184.372 229.5781,182.7158 Q230.9063,181.0595 233.4063,181.0595 Q234.1094,181.0595 234.75,181.2158 Q235.4063,181.372 235.9688,181.6689 L235.9688,184.3877 Q235.3438,183.8095 234.75,183.5439 Q234.1563,183.2627 233.5313,183.2627 Q232.1875,183.2627 231.5,184.3408 Q230.8125,185.4033 230.8125,187.497 Q230.8125,189.5908 231.5,190.6689 Q232.1875,191.7314 233.5313,191.7314 Q234.1563,191.7314 234.75,191.4658 Q235.3438,191.1845 235.9688,190.6064 L235.9688,193.3252 Z " fill="#000000"/><text fill="#D9B8FF" font-family="Helvetica" font-size="17" lengthAdjust="spacing" textLength="36" x="252" y="193.5698">user</text></g><!--reverse link github_resource to github_user--><g id="link_github_resource_github_user"><path codeLine="35" d="M103.0961,225.4177 C109.8261,255.9377 119.03,297.69 125.76,328.25 " fill="none" id="github_resource-backto-github_user" style="stroke:#FFAF37;stroke-width:2.0;"/><polygon fill="none" points="99.22,207.84,97.2368,226.7097,108.9553,224.1257,99.22,207.84" style="stroke:#FFAF37;stroke-width:2.0;"/></g><!--reverse link user to github_user--><g id="link_user_github_user"><path codeLine="36" d="M230.4372,221.897 C206.0272,252.417 169.82,297.69 145.37,328.25 " fill="none" id="user-backto-github_user" style="stroke:#FFAF37;stroke-width:2.0;"/><polygon fill="none" points="241.68,207.84,225.7515,218.1494,235.1228,225.6446,241.68,207.84" style="stroke:#FFAF37;stroke-width:2.0;"/></g><!--reverse link resource to user--><g id="link_resource_user"><path codeLine="37" d="M257,65.05 C257,95.57 257,136.9 257,167.46 " fill="none" id="resource-backto-user" style="stroke:#FFAF37;stroke-width:2.0;"/><polygon fill="none" points="257,47.05,251,65.05,263,65.05,257,47.05" style="stroke:#FFAF37;stroke-width:2.0;"/></g><!--SRC=[XP1BRuCm48Jl_0fBEID1evOWzP8YLUqbgfhUAuFNO04sMY-DqiT_Ro1zE2QFwyotixDRAG4Csewsh8Ks1xI1hPNkEFAMBH7D9ZEDGJQJaijvufltHjD5OCLRO0_Gl06fWll4IwMAMeErxCgnxdXHbsXwBVRnX5pRdGMQ72fhkBLB8bHvJ-2K4Mc-aD8d_T3PNCJ93KmmWmBm1ucYICIfZrnSTVRkFsAjte75xjDMXc1ISx9YfCws70YdvEJGN_zanoSkXD8bktQqvtqdr807-hhYmcm6MlB6kcii0OAXRGVPv2f85q8cH-77Kt1G3AzZfQAgpryHhEcn0FOH15-7Lczt7Htv6FhF-7ctds4Okb71o4vbRsBKlW40]--></g></svg>

<svg xmlns="http://www.w3.org/2000/svg" width="320" height="374" viewBox="0 0 320 374"><rect width="176" height="39.789" x="7" y="167.79" fill="#3D176E" rx="2.5" ry="2.5" style="stroke:#000d19;stroke-width:.5"/><circle cx="22" cy="187.685" r="11" fill="#ADD1B2" style="stroke:#181818;stroke-width:1"/><path d="M24.969 193.325q-.578.297-1.219.438-.64.156-1.344.156-2.5 0-3.828-1.64-1.312-1.657-1.312-4.782t1.312-4.781q1.328-1.656 3.828-1.656.703 0 1.344.156.656.156 1.219.453v2.719q-.625-.578-1.219-.844-.594-.281-1.219-.281-1.343 0-2.031 1.078-.687 1.062-.687 3.156t.687 3.172q.688 1.062 2.031 1.062.625 0 1.219-.265.594-.281 1.219-.86z"/><text x="41" y="193.57" fill="#D9B8FF" font-family="Helvetica" font-size="17" textLength="134">github_resource</text><rect width="141" height="39.789" x="59.5" y="328.58" fill="#3D176E" rx="2.5" ry="2.5" style="stroke:#000d19;stroke-width:.5"/><circle cx="74.5" cy="348.474" r="11" fill="#ADD1B2" style="stroke:#181818;stroke-width:1"/><path d="M77.469 354.115q-.578.297-1.219.438-.64.156-1.344.156-2.5 0-3.828-1.64-1.312-1.657-1.312-4.782t1.312-4.781q1.328-1.656 3.828-1.656.703 0 1.344.156.656.156 1.219.453v2.719q-.625-.579-1.219-.844-.594-.281-1.219-.281-1.344 0-2.031 1.078-.687 1.062-.687 3.156t.687 3.172q.688 1.062 2.031 1.062.625 0 1.219-.265.594-.281 1.219-.86z"/><text x="93.5" y="354.36" fill="#D9B8FF" font-family="Helvetica" font-size="17" textLength="99">github_user</text><rect width="113" height="39.789" x="200.5" y="7" fill="#3D176E" rx="2.5" ry="2.5" style="stroke:#000d19;stroke-width:.5"/><circle cx="215.5" cy="26.895" r="11" fill="#ADD1B2" style="stroke:#181818;stroke-width:1"/><path d="M218.469 32.535q-.578.297-1.219.438-.64.156-1.344.156-2.5 0-3.828-1.64-1.312-1.657-1.312-4.782t1.312-4.781q1.328-1.656 3.828-1.656.703 0 1.344.156.656.156 1.219.453v2.719q-.625-.578-1.219-.844-.594-.281-1.219-.281-1.344 0-2.031 1.078-.687 1.062-.687 3.156t.687 3.172q.688 1.062 2.031 1.062.625 0 1.219-.265.594-.281 1.219-.86z"/><text x="234.5" y="32.78" fill="#D9B8FF" font-family="Helvetica" font-size="17" textLength="71">resource</text><rect width="78" height="39.789" x="218" y="167.79" fill="#3D176E" rx="2.5" ry="2.5" style="stroke:#000d19;stroke-width:.5"/><circle cx="233" cy="187.685" r="11" fill="#ADD1B2" style="stroke:#181818;stroke-width:1"/><path d="M235.969 193.325q-.578.297-1.219.438-.64.156-1.344.156-2.5 0-3.828-1.64-1.312-1.657-1.312-4.782t1.312-4.781q1.328-1.656 3.828-1.656.703 0 1.344.156.656.156 1.219.453v2.719q-.625-.578-1.219-.844-.594-.281-1.219-.281-1.344 0-2.031 1.078-.687 1.062-.687 3.156t.687 3.172q.688 1.062 2.031 1.062.625 0 1.219-.265.594-.281 1.219-.86z"/><text x="252" y="193.57" fill="#D9B8FF" font-family="Helvetica" font-size="17" textLength="36">user</text><path fill="none" d="M103.096 225.418c6.73 30.52 15.934 72.272 22.664 102.832M99.22 207.84l-1.983 18.87 11.718-2.584z" style="stroke:#ffaf37;stroke-width:2"/><g fill="none"><path d="M230.437 221.897c-24.41 30.52-60.617 75.793-85.067 106.353" style="stroke:#ffaf37;stroke-width:2"/><path d="m241.68 207.84-15.929 10.31 9.372 7.495z" style="stroke:#ffaf37;stroke-width:2"/></g><path fill="none" d="M257 65.05v102.41m0-120.41-6 18h12z" style="stroke:#ffaf37;stroke-width:2"/></svg>
